products/org.csstudio.iter.css.product/SymbolLibrary_full_hd/SVG/Electrical/Converters/EG Bypass.svg

<?xml version="1.0" encoding="UTF-8" standalone="no"?>
<!--
/*******************************************************************************
* Copyright (c) 2010-2016 ITER Organization.
* All rights reserved. This program and the accompanying materials
* are made available under the terms of the Eclipse Public License v1.0
* which accompanies this distribution, and is available at
* http://www.eclipse.org/legal/epl-v10.html
******************************************************************************/
-->
<!--
/*******************************************************************************
* Copyright (c) 2010-2016 ITER Organization.
* All rights reserved. This program and the accompanying materials
* are made available under the terms of the Eclipse Public License v1.0
* which accompanies this distribution, and is available at
* http://www.eclipse.org/legal/epl-v10.html
******************************************************************************/
-->

<svg
   xmlns:dc="http://purl.org/dc/elements/1.1/"
   xmlns:cc="http://creativecommons.org/ns#"
   xmlns:rdf="http://www.w3.org/1999/02/22-rdf-syntax-ns#"
   xmlns:svg="http://www.w3.org/2000/svg"
   xmlns="http://www.w3.org/2000/svg"
   xmlns:sodipodi="http://sodipodi.sourceforge.net/DTD/sodipodi-0.dtd"
   xmlns:inkscape="http://www.inkscape.org/namespaces/inkscape"
   width="260pt"
   height="354pt"
   viewBox="0 0 260 354"
   version="1.1"
   id="svg2"
   inkscape:version="0.91 r13725"
   sodipodi:docname="OL_EE0309.svg">
  <metadata
     id="metadata39">
    <rdf:RDF>
      <cc:Work
         rdf:about="">
        <dc:format>image/svg+xml</dc:format>
        <dc:type
           rdf:resource="http://purl.org/dc/dcmitype/StillImage" />
        <dc:title></dc:title>
      </cc:Work>
    </rdf:RDF>
  </metadata>
  <defs
     id="defs37" />
  <sodipodi:namedview
     pagecolor="#ffffff"
     bordercolor="#666666"
     borderopacity="1"
     objecttolerance="10"
     gridtolerance="10"
     guidetolerance="10"
     inkscape:pageopacity="0"
     inkscape:pageshadow="2"
     inkscape:window-width="1366"
     inkscape:window-height="706"
     id="namedview35"
     showgrid="false"
     inkscape:zoom="0.53333333"
     inkscape:cx="162.5"
     inkscape:cy="221.25"
     inkscape:window-x="-8"
     inkscape:window-y="-8"
     inkscape:window-maximized="1"
     inkscape:current-layer="svg2" />
  <g
     id="surface1"
     transform="matrix(0.96711626,0,0,0.94410456,4.5808589,9.6408558)"
     style="stroke-width:1.97689029;stroke-miterlimit:3;stroke-dasharray:none">
    <path
       style="fill:#ffffff;fill-opacity:1;fill-rule:evenodd;stroke:#000000;stroke-width:1.05332881;stroke-linecap:round;stroke-linejoin:round;stroke-miterlimit:3;stroke-opacity:1;stroke-dasharray:none"
       d="m 1.05117e-4,1.999998 136.063064883,0 0,187.085732 -136.063064883,0 z"
       transform="matrix(1.87861,0,0,1.874997,1.878709,-1.874989)"
       id="path5"
       inkscape:connector-curvature="0" />
    <path
       style="fill:none;stroke:#000000;stroke-width:1.05332881;stroke-linecap:round;stroke-linejoin:round;stroke-miterlimit:3;stroke-dasharray:none;stroke-opacity:1"
       d="m 8.500017,121.06047 8.5107,17.00003 0,34.01881 -17.011002649,0 0,17.01044 34.019925649,0 0,-17.01044 -17.008923,0"
       transform="matrix(1.87861,0,0,1.874997,113.69975,-145.37863)"
       id="path7"
       inkscape:connector-curvature="0" />
    <path
       style="fill:none;stroke:#000000;stroke-width:4.01480543;stroke-linecap:butt;stroke-linejoin:miter;stroke-miterlimit:3;stroke-opacity:1;stroke-dasharray:none"
       d="m 6.32625e-4,189.09032 110.549677375,0"
       transform="matrix(1.87861,0,0,1.874997,17.85428,-113.48906)"
       id="path9"
       inkscape:connector-curvature="0" />
    <path
       style="fill:none;stroke:#000000;stroke-width:1.05332881;stroke-linecap:round;stroke-linejoin:round;stroke-miterlimit:3;stroke-opacity:1;stroke-dasharray:none"
       d="m 4.539811,172.07987 0,17.01045 -4.539178375,0"
       transform="matrix(1.87861,0,0,1.874997,17.85428,-113.48906)"
       id="path11"
       inkscape:connector-curvature="0" />
    <path
       style="fill:none;stroke:#000000;stroke-width:1.05332881;stroke-linecap:round;stroke-linejoin:round;stroke-miterlimit:3;stroke-opacity:1;stroke-dasharray:none"
       d="m -9.25198e-4,189.09032 17.011002198,0 0,-17.01045"
       transform="matrix(1.87861,0,0,1.874997,33.829863,-113.48906)"
       id="path13"
       inkscape:connector-curvature="0" />
    <path
       style="fill:none;stroke:#000000;stroke-width:1.05332881;stroke-linecap:round;stroke-linejoin:round;stroke-miterlimit:3;stroke-opacity:1;stroke-dasharray:none"
       d="m -2.42488e-4,189.09032 17.011002488,0 0,-17.01045"
       transform="matrix(1.87861,0,0,1.874997,74.301237,-113.48906)"
       id="path15"
       inkscape:connector-curvature="0" />
    <path
       style="fill:none;stroke:#000000;stroke-width:1.05332881;stroke-linecap:round;stroke-linejoin:round;stroke-miterlimit:3;stroke-opacity:1;stroke-dasharray:none"
       d="m 6.66027e-4,172.07987 0,17.01045 9.070038973,0"
       transform="matrix(1.87861,0,0,1.874997,145.6589,-113.48906)"
       id="path17"
       inkscape:connector-curvature="0" />
    <path
       style="fill:none;stroke:#000000;stroke-width:1.05332881;stroke-linecap:round;stroke-linejoin:round;stroke-miterlimit:3;stroke-opacity:1;stroke-dasharray:none"
       d="m 8.499946,189.09078 0,-17.01045 -8.500302988,0"
       transform="matrix(1.87861,0,0,1.874997,113.7077,-81.599299)"
       id="path19"
       inkscape:connector-curvature="0" />
    <path
       style="fill:none;stroke:#000000;stroke-width:1.05332881;stroke-linecap:round;stroke-linejoin:round;stroke-miterlimit:3;stroke-opacity:1;stroke-dasharray:none"
       d="m -9.24642e-4,87.040607 0,-17.010445 51.020530642,0 0,119.060618"
       transform="matrix(1.87861,0,0,1.874997,145.6658,-81.599299)"
       id="path21"
       inkscape:connector-curvature="0" />
    <path
       style="fill:#ffffff;fill-opacity:1;fill-rule:evenodd;stroke:#000000;stroke-width:1.05332881;stroke-linecap:round;stroke-linejoin:round;stroke-miterlimit:3;stroke-opacity:1;stroke-dasharray:none"
       d="m 8.500401,189.09041 8.50862,-8.51043 -17.0089226263,0 z"
       transform="matrix(1.87861,0,0,1.874997,177.617,-304.82517)"
       id="path23"
       inkscape:connector-curvature="0" />
    <path
       style="fill:none;stroke:#000000;stroke-width:1.05332881;stroke-linecap:round;stroke-linejoin:round;stroke-miterlimit:3;stroke-opacity:1;stroke-dasharray:none"
       d="m -4.26988e-4,155.07918 8.500302988,17.01044 0,17.00003"
       transform="matrix(1.87861,0,0,1.874997,113.70783,-17.819839)"
       id="path25"
       inkscape:connector-curvature="0" />
    <path
       style="fill:none;stroke:#000000;stroke-width:1.05332881;stroke-linecap:round;stroke-linejoin:round;stroke-miterlimit:3;stroke-opacity:1;stroke-dasharray:none"
       d="m -3.55094e-4,155.07918 8.500303094,17.01044 0,17.00003"
       transform="matrix(1.87861,0,0,1.874997,225.53582,-17.819839)"
       id="path27"
       inkscape:connector-curvature="0" />
    <path
       style="fill:none;stroke:#000000;stroke-width:1.05332881;stroke-linecap:round;stroke-linejoin:round;stroke-miterlimit:3;stroke-opacity:1;stroke-dasharray:none"
       d="m -1.41414e-5,189.08965 59.5291511414,0"
       transform="matrix(1.87861,0,0,1.874997,129.67581,-17.819839)"
       id="path29"
       inkscape:connector-curvature="0" />
    <path
       style="fill:#ffffff;fill-opacity:1;fill-rule:evenodd;stroke:#000000;stroke-width:1.97689029;stroke-linecap:round;stroke-linejoin:round;stroke-miterlimit:3;stroke-opacity:1;stroke-dasharray:none"
       d="m 18.046128,18.006731 77.480064,0 0,76.111117 -77.480064,0 z"
       id="path31"
       inkscape:connector-curvature="0" />
    <path
       style="fill:#ffffff;fill-opacity:1;fill-rule:evenodd;stroke:#000000;stroke-width:0.86443165;stroke-linecap:round;stroke-linejoin:round;stroke-miterlimit:3;stroke-opacity:1;stroke-dasharray:none"
       d="m 40.471754,54.989138 16.757825,-21.093793 18.423776,0 -20.962653,16.458713 16.788563,0 -33.552538,26.352833 17.618464,-21.717753 z"
       id="path33"
       inkscape:connector-curvature="0" />
  </g>
</svg>

<?xml version="1.0" encoding="UTF-8" standalone="no"?>
<!--
/*******************************************************************************
* Copyright (c) 2010-2016 ITER Organization.
* All rights reserved. This program and the accompanying materials
* are made available under the terms of the Eclipse Public License v1.0
* which accompanies this distribution, and is available at
* http://www.eclipse.org/legal/epl-v10.html
******************************************************************************/
-->
<!DOCTYPE svg PUBLIC "-//W3C//DTD SVG 1.0//EN" "C:\SeeVisioDTD\svg10.dtd">
<!-- Généré par Microsoft Visio 11.0, SVG Export, v1.0 OL_EE0309.svg Page-1 -->
<svg xmlns="http://www.w3.org/2000/svg" xmlns:v="http://schemas.microsoft.com/visio/2003/SVGExtensions/" width="1.91754in"
		height="2.62619in" viewBox="0 0 138.063 189.086" xml:space="preserve" color-interpolation-filters="sRGB" class="st11">
	<v:documentProperties v:langID="1036" v:metric="true" v:viewMarkup="false"/>
	<style type="text/css">
	<![CDATA[
		.st1 {fill:#ffffff;stroke:#000000;stroke-linecap:round;stroke-linejoin:round;stroke-width:0.999996}
		.st2 {fill:none;stroke:none;stroke-width:0.999999}
		.st3 {fill:none}
		.st4 {stroke:#000000;stroke-linecap:round;stroke-linejoin:round;stroke-width:0.999996}
		.st5 {stroke:#000000;stroke-linecap:butt;stroke-width:4}
		.st6 {stroke:#000000;stroke-linecap:round;stroke-linejoin:round;stroke-width:1}
		.st7 {fill:none;stroke:none;stroke-width:0.999996}
		.st8 {stroke:#000000;stroke-linecap:round;stroke-linejoin:round;stroke-width:0.999993}
		.st9 {fill:#ffffff;stroke:#000000;stroke-linecap:round;stroke-linejoin:round;stroke-width:0.999993}
		.st10 {fill:#ffffff;stroke:#000000;stroke-linecap:round;stroke-linejoin:round;stroke-width:0.239998}
		.st11 {fill:none;fill-rule:evenodd;font-size:12;overflow:visible;stroke-linecap:square;stroke-miterlimit:3}
	]]>
	</style>
	<g v:mID="0" v:index="1" v:groupContext="foregroundPage">
		<title>Page-1</title>
		<v:pageProperties v:drawingScale="0.0393701" v:pageScale="0.0393701" v:drawingUnits="24" v:shadowOffsetX="8.99993"
				v:shadowOffsetY="-8.99993"/>
		<v:layer v:name="EQ" v:index="0"/>
		<g id="shape84-1" v:mID="84" v:groupContext="shape" transform="translate(0.999996,-0.999996)">
			<title>Feuille.84</title>
			<rect x="0" y="1.99999" width="136.063" height="187.086" class="st1"/>
		</g>
		<g id="group53-3" transform="translate(60.5233,-77.5354)" v:mID="53" v:groupContext="group">
			<title>Feuille.53</title>
			<g id="shape54-4" v:mID="54" v:groupContext="shape">
				<title>Feuille.54</title>
				<path d="M8.5 121.06 L17.01 138.06 L17.01 172.08 L0 172.08 L0 189.09 L34.02 189.09 L34.02 172.08 L17.01 172.08 L8.5
							 121.06 Z" class="st2"/>
			</g>
			<g id="shape55-6" v:mID="55" v:groupContext="shape">
				<title>Feuille.55</title>
				<path d="M8.5 121.06 L17.01 138.06 L17.01 172.08 L0 172.08 L0 189.09 L34.02 189.09 L34.02 172.08 L17.01 172.08 L8.5
							 121.06 Z" class="st3"/>
				<path d="M8.5 121.06 L17.01 138.06 L17.01 172.08 L0 172.08 L0 189.09 L34.02 189.09 L34.02 172.08 L17.01 172.08"
						class="st4"/>
			</g>
		</g>
		<g id="group56-9" transform="translate(9.50393,-43.5197)" v:mID="56" v:groupContext="group">
			<title>Feuille.56</title>
			<g id="shape47-10" v:mID="47" v:groupContext="shape" transform="translate(-3.19744E-014,-17.0079)">
				<title>Feuille.47</title>
				<path d="M0 189.09 L110.55 189.09" class="st5"/>
			</g>
			<g id="shape48-13" v:mID="48" v:groupContext="shape" transform="translate(-4.04676E-014,-17.0079)">
				<title>Feuille.48</title>
				<path d="M4.54 172.08 L4.54 189.09 L0 189.09" class="st6"/>
			</g>
			<g id="shape49-16" v:mID="49" v:groupContext="shape" transform="translate(8.50394,-17.0079)">
				<title>Feuille.49</title>
				<path d="M0 189.09 L17.01 189.09 L17.01 172.08" class="st6"/>
			</g>
			<g id="shape50-19" v:mID="50" v:groupContext="shape" transform="translate(30.0472,-17.0079)">
				<title>Feuille.50</title>
				<path d="M0 189.09 L17.01 189.09 L17.01 172.08" class="st6"/>
			</g>
			<g id="shape52-22" v:mID="52" v:groupContext="shape" transform="translate(68.0315,-17.0079)">
				<title>Feuille.52</title>
				<path d="M0 172.08 L0 189.09 L9.07 189.09" class="st6"/>
			</g>
			<g id="shape51-25" v:mID="51" v:groupContext="shape" transform="translate(51.0236,-5.68434E-014)">
				<title>Feuille.51</title>
				<path d="M8.5 189.09 L8.5 172.08 L0 172.08" class="st6"/>
			</g>
		</g>
		<g id="group58-28" transform="translate(77.5391,-43.5197)" v:mID="58" v:groupContext="group">
			<title>Feuille.58</title>
			<g id="group59-29" v:mID="59" v:groupContext="group">
				<title>Feuille.49</title>
				<g id="shape60-30" v:mID="60" v:groupContext="shape">
					<title>Feuille.60</title>
					<path d="M0 87.04 L0 70.03 L51.02 70.03 L51.02 189.09 L0 87.04 Z" class="st2"/>
				</g>
				<g id="shape61-32" v:mID="61" v:groupContext="shape">
					<title>Feuille.61</title>
					<path d="M0 87.04 L0 70.03 L51.02 70.03 L51.02 189.09 L0 87.04 Z" class="st3"/>
					<path d="M0 87.04 L0 70.03 L51.02 70.03 L51.02 189.09" class="st4"/>
				</g>
			</g>
			<g id="shape62-35" v:mID="62" v:groupContext="shape" transform="translate(17.0079,-119.054)">
				<title>Feuille.50</title>
				<path d="M8.5 189.09 L17.01 180.58 L0 180.58 L8.5 189.09 Z" class="st1"/>
			</g>
		</g>
		<g id="group79-37" transform="translate(60.5276,-9.50393)" v:mID="79" v:groupContext="group">
			<title>Feuille.79</title>
			<g id="group63-38" v:mID="63" v:groupContext="group">
				<title>Feuille.63</title>
				<g id="group64-39" v:mID="64" v:groupContext="group">
					<title>Feuille.58</title>
					<g id="shape65-40" v:mID="65" v:groupContext="shape">
						<title>Feuille.13</title>
						<path d="M0 155.08 L8.5 172.09 L8.5 189.09 L0 155.08 Z" class="st7"/>
					</g>
					<g id="group66-42" v:mID="66" v:groupContext="group">
						<title>Feuille.14</title>
						<g id="shape67-43" v:mID="67" v:groupContext="shape">
							<title>Feuille.67</title>
							<path d="M0 155.08 L8.5 172.09 L8.5 189.09 L0 155.08 Z" class="st2"/>
						</g>
						<g id="shape68-45" v:mID="68" v:groupContext="shape">
							<title>Feuille.68</title>
							<path d="M0 155.08 L8.5 172.09 L8.5 189.09 L0 155.08 Z" class="st3"/>
							<path d="M0 155.08 L8.5 172.09 L8.5 189.09" class="st8"/>
						</g>
					</g>
				</g>
			</g>
			<g id="group69-48" transform="translate(59.527,-2.84217E-014)" v:mID="69" v:groupContext="group">
				<title>Feuille.69</title>
				<g id="group70-49" v:mID="70" v:groupContext="group">
					<title>Feuille.61</title>
					<g id="shape71-50" v:mID="71" v:groupContext="shape">
						<title>Feuille.18</title>
						<path d="M0 155.08 L8.5 172.09 L8.5 189.09 L0 155.08 Z" class="st7"/>
					</g>
					<g id="group72-52" v:mID="72" v:groupContext="group">
						<title>Feuille.19</title>
						<g id="shape73-53" v:mID="73" v:groupContext="shape">
							<title>Feuille.73</title>
							<path d="M0 155.08 L8.5 172.09 L8.5 189.09 L0 155.08 Z" class="st2"/>
						</g>
						<g id="shape74-55" v:mID="74" v:groupContext="shape">
							<title>Feuille.74</title>
							<path d="M0 155.08 L8.5 172.09 L8.5 189.09 L0 155.08 Z" class="st3"/>
							<path d="M0 155.08 L8.5 172.09 L8.5 189.09" class="st8"/>
						</g>
					</g>
				</g>
			</g>
			<g id="group75-58" transform="translate(8.49989,0)" v:mID="75" v:groupContext="group">
				<title>Feuille.75</title>
				<g id="group76-59" v:mID="76" v:groupContext="group">
					<title>Feuille.22</title>
					<g id="shape77-60" v:mID="77" v:groupContext="shape">
						<title>Feuille.77</title>
						<path d="M0 189.09 L59.53 189.09 L0 189.09 Z" class="st2"/>
					</g>
					<g id="shape78-62" v:mID="78" v:groupContext="shape">
						<title>Feuille.78</title>
						<path d="M0 189.09 L59.53 189.09 L0 189.09 Z" class="st3"/>
						<path d="M0 189.09 L59.53 189.09" class="st8"/>
					</g>
				</g>
			</g>
		</g>
		<g id="group80-65" transform="translate(9.50411,-145.567)" v:mID="80" v:groupContext="group">
			<title>document.80</title>
			<g id="group81-66" v:mID="81" v:groupContext="group">
				<title>carre</title>
				<g id="shape82-67" v:mID="82" v:groupContext="shape">
					<title>Feuille.839</title>
					<rect x="0" y="155.07" width="34.0156" height="34.0156" class="st9"/>
				</g>
				<g id="shape83-69" v:mID="83" v:groupContext="shape" v:layerMember="0" transform="translate(10.6299,-8.48969)">
					<title>Feuille.840</title>
					<path d="M0.86 180.46 L6.53 172.08 L12.76 172.08 L5.67 178.62 L11.35 178.62 L0 189.09 L5.96 180.46 L0.86 180.46
								 Z" class="st10"/>
				</g>
			</g>
		</g>
	</g>
</svg>
